src/assets/images/icons/package.svg

<svg width="24" height="24" viewBox="0 0 24 24" fill="none" xmlns="http://www.w3.org/2000/svg">
<path d="M16.5 9.40002L7.5 4.21002M3.27 6.96002L12 12.01L20.73 6.96002M12 22.08V12M21 16V8.00002C20.9996 7.6493 20.9071 7.30483 20.7315 7.00119C20.556 6.69754 20.3037 6.44539 20 6.27002L13 2.27002C12.696 2.09449 12.3511 2.00208 12 2.00208C11.6489 2.00208 11.304 2.09449 11 2.27002L4 6.27002C3.69626 6.44539 3.44398 6.69754 3.26846 7.00119C3.09294 7.30483 3.00036 7.6493 3 8.00002V16C3.00036 16.3508 3.09294 16.6952 3.26846 16.9989C3.44398 17.3025 3.69626 17.5547 4 17.73L11 21.73C11.304 21.9056 11.6489 21.998 12 21.998C12.3511 21.998 12.696 21.9056 13 21.73L20 17.73C20.3037 17.5547 20.556 17.3025 20.7315 16.9989C20.9071 16.6952 20.9996 16.3508 21 16Z" stroke="#181D27" stroke-width="2" stroke-linecap="round" stroke-linejoin="round"/>
</svg>

<svg xmlns="http://www.w3.org/2000/svg" fill="none" viewBox="0 0 24 24"><path stroke="#181D27" stroke-linecap="round" stroke-linejoin="round" stroke-width="2" d="m16.5 9.4-9-5.19M3.27 6.96 12 12.01l8.73-5.05M12 22.08V12m9 4V8a2 2 0 0 0-1-1.73l-7-4a2 2 0 0 0-2 0l-7 4A2 2 0 0 0 3 8v8a2 2 0 0 0 1 1.73l7 4a2 2 0 0 0 2 0l7-4A2 2 0 0 0 21 16"/></svg>
